static/images/instagram.svg

<svg width="32" height="32" viewBox="0 0 32 32" fill="none" xmlns="http://www.w3.org/2000/svg">
<path d="M16.0094 2.88181C20.2869 2.88181 20.7934 2.90057 22.4757 2.97558C24.0391 3.04434 24.8833 3.3069 25.4462 3.52569C26.1903 3.81324 26.7282 4.16331 27.2847 4.71967C27.8476 5.28228 28.1915 5.81364 28.4792 6.55753C28.6981 7.12014 28.9607 7.97031 29.0295 9.52686C29.1046 11.2147 29.1233 11.721 29.1233 15.9906C29.1233 20.2665 29.1046 20.7728 29.0295 22.4544C28.9607 24.0172 28.6981 24.8611 28.4792 25.4237C28.1915 26.1676 27.8413 26.7052 27.2847 27.2616C26.7219 27.8242 26.1903 28.168 25.4462 28.4556C24.8833 28.6744 24.0328 28.9369 22.4757 29.0057C20.7872 29.0807 20.2806 29.0994 16.0094 29.0994C11.7319 29.0994 11.2253 29.0807 9.54309 29.0057C7.97968 28.9369 7.13543 28.6744 6.5726 28.4556C5.82841 28.168 5.2906 27.8179 4.73402 27.2616C4.17119 26.699 3.82724 26.1676 3.53957 25.4237C3.3207 24.8611 3.05804 24.0109 2.98925 22.4544C2.91421 20.7666 2.89545 20.2602 2.89545 15.9906C2.89545 11.7148 2.91421 11.2084 2.98925 9.52686C3.05804 7.96405 3.3207 7.12014 3.53957 6.55753C3.82724 5.81364 4.17745 5.27603 4.73402 4.71967C5.29685 4.15706 5.82841 3.81324 6.5726 3.52569C7.13543 3.3069 7.98593 3.04434 9.54309 2.97558C11.2253 2.90057 11.7319 2.88181 16.0094 2.88181ZM16.0094 0C11.6631 0 11.119 0.0187537 9.41176 0.0937683C7.71077 0.168783 6.54133 0.443837 5.52824 0.837664C4.47137 1.25024 3.5771 1.7941 2.68908 2.68802C1.7948 3.5757 1.25073 4.46962 0.837991 5.51983C0.44401 6.53878 0.168849 7.7015 0.093805 9.40184C0.018761 11.1147 0 11.6585 0 16.0031C0 20.3477 0.018761 20.8916 0.093805 22.5982C0.168849 24.2985 0.44401 25.4675 0.837991 26.4802C1.25073 27.5366 1.7948 28.4306 2.68908 29.3182C3.5771 30.2059 4.47137 30.756 5.52199 31.1623C6.54133 31.5562 7.70451 31.8312 9.40551 31.9062C11.1128 31.9812 11.6568 32 16.0031 32C20.3494 32 20.8935 31.9812 22.6007 31.9062C24.3017 31.8312 25.4712 31.5562 26.4843 31.1623C27.5349 30.756 28.4292 30.2059 29.3172 29.3182C30.2052 28.4306 30.7555 27.5366 31.162 26.4864C31.556 25.4675 31.8311 24.3047 31.9062 22.6044C31.9812 20.8978 32 20.354 32 16.0094C32 11.6648 31.9812 11.1209 31.9062 9.41434C31.8311 7.71401 31.556 6.54503 31.162 5.53233C30.768 4.46962 30.224 3.5757 29.3297 2.68802C28.4417 1.80035 27.5474 1.25024 26.4968 0.843915C25.4774 0.450088 24.3142 0.175034 22.6132 0.10002C20.8997 0.0187537 20.3557 0 16.0094 0Z" fill="black"/>
<path d="M16.0094 7.78277C11.4692 7.78277 7.78581 11.4647 7.78581 16.0031C7.78581 20.5415 11.4692 24.2235 16.0094 24.2235C20.5495 24.2235 24.2329 20.5415 24.2329 16.0031C24.2329 11.4647 20.5495 7.78277 16.0094 7.78277ZM16.0094 21.3354C13.0639 21.3354 10.675 18.9474 10.675 16.0031C10.675 13.0588 13.0639 10.6708 16.0094 10.6708C18.9549 10.6708 21.3438 13.0588 21.3438 16.0031C21.3438 18.9474 18.9549 21.3354 16.0094 21.3354Z" fill="#090940"/>
<path d="M26.478 7.45765C26.478 8.52036 25.615 9.37678 24.5581 9.37678C23.495 9.37678 22.6383 8.51411 22.6383 7.45765C22.6383 6.39494 23.5013 5.53852 24.5581 5.53852C25.615 5.53852 26.478 6.40119 26.478 7.45765Z" fill="black"/>
</svg>

<svg width="32" height="32" fill="none" xmlns="http://www.w3.org/2000/svg">
    <path d="M16.01 2.882c4.277 0 4.783.019 6.466.094 1.563.068 2.407.33 2.97.55a4.95 4.95 0 0 1 1.839 1.194 4.922 4.922 0 0 1 1.194 1.838c.22.562.482 1.412.55 2.969.076 1.688.094 2.194.094 6.464 0 4.276-.018 4.782-.094 6.463-.068 1.563-.33 2.407-.55 2.97a4.95 4.95 0 0 1-1.194 1.838 4.925 4.925 0 0 1-1.839 1.194c-.563.218-1.413.48-2.97.55-1.689.075-2.195.093-6.467.093-4.277 0-4.784-.018-6.466-.093-1.563-.07-2.408-.332-2.97-.55a4.953 4.953 0 0 1-1.839-1.194 4.922 4.922 0 0 1-1.194-1.838c-.22-.563-.482-1.413-.55-2.97-.076-1.687-.095-2.194-.095-6.463 0-4.276.02-4.783.094-6.464.069-1.563.332-2.407.55-2.97A4.949 4.949 0 0 1 4.735 4.72a4.924 4.924 0 0 1 1.839-1.194c.562-.22 1.413-.482 2.97-.55 1.682-.075 2.189-.094 6.466-.094Zm0-2.882c-4.347 0-4.891.019-6.598.094-1.701.075-2.87.35-3.884.744-1.057.412-1.95.956-2.839 1.85C1.795 3.576 1.251 4.47.838 5.52.444 6.539.168 7.702.094 9.402.019 11.115 0 11.659 0 16.003c0 4.345.019 4.889.094 6.595.075 1.7.35 2.87.744 3.882.413 1.057.957 1.95 1.851 2.838a7.825 7.825 0 0 0 2.833 1.844c1.02.394 2.183.67 3.884.744 1.707.075 2.25.094 6.597.094 4.346 0 4.89-.019 6.598-.094 1.7-.075 2.87-.35 3.883-.744a7.825 7.825 0 0 0 2.833-1.844 7.822 7.822 0 0 0 1.845-2.832c.394-1.018.67-2.181.744-3.882.075-1.706.094-2.25.094-6.595 0-4.344-.019-4.888-.094-6.595-.075-1.7-.35-2.869-.744-3.882a7.495 7.495 0 0 0-1.832-2.844A7.826 7.826 0 0 0 26.497.844C25.477.45 24.314.175 22.613.1 20.9.019 20.356 0 16.01 0Z" fill="#000"/>
    <path d="M16.01 7.783c-4.54 0-8.224 3.682-8.224 8.22s3.683 8.22 8.223 8.22c4.54 0 8.224-3.681 8.224-8.22 0-4.538-3.684-8.22-8.224-8.22Zm0 13.552a5.334 5.334 0 0 1-5.335-5.332 5.334 5.334 0 0 1 10.669 0 5.334 5.334 0 0 1-5.335 5.332Z" fill="#090940"/>
    <path d="M26.478 7.458a1.92 1.92 0 1 1-1.92-1.92c1.057 0 1.92.863 1.92 1.92Z" fill="#000"/>
</svg>
